svg/business/currency_won_2_fill.svg

<?xml version="1.0" encoding="UTF-8"?>
<svg width="24px" height="24px" viewBox="0 0 24 24" version="1.1" xmlns="http://www.w3.org/2000/svg" xmlns:xlink="http://www.w3.org/1999/xlink">
    <title>currency_won_2_fill</title>
    <g id="页面-1" stroke="none" stroke-width="1" fill="none" fill-rule="evenodd">
        <g id="Business" transform="translate(-672.000000, -336.000000)" fill-rule="nonzero">
            <g id="currency_won_2_fill" transform="translate(672.000000, 336.000000)">
                <path d="M24,0 L24,24 L0,24 L0,0 L24,0 Z M12.5934901,23.257841 L12.5819402,23.2595131 L12.5108777,23.2950439 L12.4918791,23.2987469 L12.4918791,23.2987469 L12.4767152,23.2950439 L12.4056548,23.2595131 C12.3958229,23.2563662 12.3870493,23.2590235 12.3821421,23.2649074 L12.3780323,23.275831 L12.360941,23.7031097 L12.3658947,23.7234994 L12.3769048,23.7357139 L12.4804777,23.8096931 L12.4953491,23.8136134 L12.4953491,23.8136134 L12.5071152,23.8096931 L12.6106902,23.7357139 L12.6232938,23.7196733 L12.6232938,23.7196733 L12.6266527,23.7031097 L12.609561,23.275831 C12.6075724,23.2657013 12.6010112,23.2592993 12.5934901,23.257841 L12.5934901,23.257841 Z M12.8583906,23.1452862 L12.8445485,23.1473072 L12.6598443,23.2396597 L12.6498822,23.2499052 L12.6498822,23.2499052 L12.6471943,23.2611114 L12.6650943,23.6906389 L12.6699349,23.7034178 L12.6699349,23.7034178 L12.678386,23.7104931 L12.8793402,23.8032389 C12.8914285,23.8068999 12.9022333,23.8029875 12.9078286,23.7952264 L12.9118235,23.7811639 L12.8776777,23.1665331 C12.8752882,23.1545897 12.8674102,23.1470016 12.8583906,23.1452862 L12.8583906,23.1452862 Z M12.1430473,23.1473072 C12.1332178,23.1423925 12.1221763,23.1452606 12.1156365,23.1525954 L12.1099173,23.1665331 L12.0757714,23.7811639 C12.0751323,23.7926639 12.0828099,23.8018602 12.0926481,23.8045676 L12.108256,23.8032389 L12.3092106,23.7104931 L12.3186497,23.7024347 L12.3186497,23.7024347 L12.3225043,23.6906389 L12.340401,23.2611114 L12.337245,23.2485176 L12.337245,23.2485176 L12.3277531,23.2396597 L12.1430473,23.1473072 Z" id="MingCute" fill-rule="nonzero"></path>
                <path d="M5.70583,3.52917 C6.51817,3.36671 7.3084,3.89353 7.47087,4.70587 L9.16265,13.1648 L10.5448,7.63624 C10.7117,6.96849 11.3117,6.50005 12,6.50005 C12.6883,6.50005 13.2883,6.96849 13.4552,7.63624 L14.8373,13.1648 L16.5291,4.70587 C16.6916,3.89353 17.4818,3.36671 18.2942,3.52917 C19.1065,3.69164 19.6333,4.48188 19.4709,5.29422 L18.8297,8.50005 L19,8.50005 C19.8284,8.50005 20.5,9.17162 20.5,10 C20.5,10.8285 19.8284,11.5 19,11.5 L18.2297,11.5 L18.0297,12.5 L19,12.5 C19.8284,12.5 20.5,13.1716 20.5,14 C20.5,14.8285 19.8284,15.5 19,15.5 L17.4297,15.5 L16.6453,19.4221 C16.2896,21.2004 13.7689,21.2604 13.3291,19.501 L12,14.1847 L10.6709,19.501 C10.2311,21.2604 7.71037,21.2004 7.3547,19.4221 L6.57029,15.5 L5,15.5 C4.17157,15.5 3.5,14.8285 3.5,14 C3.5,13.1716 4.17157,12.5 5,12.5 L5.97029,12.5 L5.77029,11.5 L5,11.5 C4.17157,11.5 3.5,10.8285 3.5,10 C3.5,9.17162 4.17157,8.50005 5,8.50005 L5.17029,8.50005 L4.52913,5.29422 C4.36666,4.48188 4.89349,3.69164 5.70583,3.52917 Z" id="路径" fill="#09244B"></path>
            </g>
        </g>
    </g>
</svg>

<svg xmlns="http://www.w3.org/2000/svg" width="24" height="24"><g fill="none" fill-rule="nonzero"><path d="M24 0v24H0V0zM12.593 23.258l-.011.002-.071.035-.02.004-.014-.004-.071-.035c-.01-.004-.019-.001-.024.005l-.004.01-.017.428.005.02.01.013.104.074.015.004.012-.004.104-.074.012-.016.004-.017-.017-.427c-.002-.01-.009-.017-.017-.018m.265-.113-.013.002-.185.093-.01.01-.003.011.018.43.005.012.008.007.201.093c.012.004.023 0 .029-.008l.004-.014-.034-.614c-.003-.012-.01-.02-.02-.022m-.715.002a.023.023 0 0 0-.027.006l-.006.014-.034.614c0 .012.007.02.017.024l.015-.002.201-.093.01-.008.004-.011.017-.43-.003-.012-.01-.01z"/><path fill="#09244B" d="M5.706 3.53A1.5 1.5 0 0 1 7.47 4.705l1.692 8.459 1.382-5.529a1.5 1.5 0 0 1 2.91 0l1.382 5.529 1.692-8.46a1.5 1.5 0 0 1 2.942.59L18.83 8.5H19a1.5 1.5 0 0 1 0 3h-.77l-.2 1H19a1.5 1.5 0 0 1 0 3h-1.57l-.785 3.922c-.355 1.778-2.876 1.838-3.316.079L12 14.185 10.67 19.5c-.439 1.76-2.96 1.7-3.315-.079L6.57 15.5H5a1.5 1.5 0 1 1 0-3h.97l-.2-1H5a1.5 1.5 0 1 1 0-3h.17l-.64-3.206A1.5 1.5 0 0 1 5.705 3.53"/></g></svg>
